Numix-Circle/48x48/apps/multimedia-audio-player.svg

<?xml version="1.0" encoding="UTF-8" standalone="no"?>
<svg
   xmlns:dc="http://purl.org/dc/elements/1.1/"
   xmlns:cc="http://creativecommons.org/ns#"
   xmlns:rdf="http://www.w3.org/1999/02/22-rdf-syntax-ns#"
   xmlns:svg="http://www.w3.org/2000/svg"
   xmlns="http://www.w3.org/2000/svg"
   xmlns:xlink="http://www.w3.org/1999/xlink"
   xmlns:sodipodi="http://sodipodi.sourceforge.net/DTD/sodipodi-0.dtd"
   xmlns:inkscape="http://www.inkscape.org/namespaces/inkscape"
   width="48"
   viewBox="0 0 13.546667 13.546667"
   height="48"
   id="svg2"
   version="1.1"
   inkscape:version="0.91 r13725"
   sodipodi:docname="noise.svg">
  <metadata
     id="metadata331">
    <rdf:RDF>
      <cc:Work
         rdf:about="">
        <dc:format>image/svg+xml</dc:format>
        <dc:type
           rdf:resource="http://purl.org/dc/dcmitype/StillImage" />
        <dc:title />
      </cc:Work>
    </rdf:RDF>
  </metadata>
  <sodipodi:namedview
     pagecolor="#ffffff"
     bordercolor="#666666"
     borderopacity="1"
     objecttolerance="10"
     gridtolerance="10"
     guidetolerance="10"
     inkscape:pageopacity="0"
     inkscape:pageshadow="2"
     inkscape:window-width="1920"
     inkscape:window-height="1023"
     id="namedview329"
     showgrid="true"
     inkscape:zoom="10.89316"
     inkscape:cx="23.789556"
     inkscape:cy="20.691982"
     inkscape:window-x="0"
     inkscape:window-y="28"
     inkscape:window-maximized="1"
     inkscape:current-layer="layer3"
     showguides="true"
     inkscape:guide-bbox="true">
    <inkscape:grid
       type="xygrid"
       id="grid3308" />
  </sodipodi:namedview>
  <defs
     id="defs4">
    <linearGradient
       inkscape:collect="always"
       xlink:href="#linearGradient4460-9"
       id="linearGradient4033"
       x1="-27"
       y1="13"
       x2="-24"
       y2="13"
       gradientUnits="userSpaceOnUse" />
    <linearGradient
       id="linearGradient4460-9">
      <stop
         id="stop4454"
         style="stop-color:#faaa60;stop-opacity:1;"
         offset="0" />
      <stop
         id="stop4456"
         style="stop-color:#ffb36c;stop-opacity:1;"
         offset="1" />
    </linearGradient>
  </defs>
  <g
     inkscape:groupmode="layer"
     id="layer1"
     inkscape:label="Shadow"
     sodipodi:insensitive="true">
    <path
       style="opacity:0.05;fill:#000000;fill-opacity:1;stroke:none"
       d="M 25,2 C 12.297451,2 2,12.297451 2,25 2,31.367153 4.6007106,37.116628 8.78125,41.28125 12.865755,44.99361 18.29568,47.25 24.25,47.25 c 12.702549,0 23,-10.297451 23,-23 0,-5.95432 -2.25639,-11.384245 -5.96875,-15.46875 C 37.116628,4.6007105 31.367153,2 25,2 z M 41.28125,8.78125 C 45.135604,12.894061 47.5,18.418655 47.5,24.5 c 0,12.702549 -10.297451,23 -23,23 C 18.418655,47.5 12.894061,45.135604 8.78125,41.28125 12.940939,45.4251 18.664604,48 25,48 37.702549,48 48,37.702549 48,25 48,18.664604 45.4251,12.940939 41.28125,8.78125 z"
       transform="scale(0.28222223,0.28222223)"
       id="path3978"
       inkscape:connector-curvature="0" />
    <path
       style="opacity:0.1;fill:#000000;fill-opacity:1;stroke:none"
       d="M 41.28125,8.78125 C 44.99361,12.865755 47.25,18.29568 47.25,24.25 c 0,12.702549 -10.297451,23 -23,23 -5.95432,0 -11.384245,-2.25639 -15.46875,-5.96875 C 12.894061,45.135604 18.418655,47.5 24.5,47.5 c 12.702549,0 23,-10.297451 23,-23 0,-6.081345 -2.364396,-11.605939 -6.21875,-15.71875 z"
       transform="scale(0.28222223,0.28222223)"
       id="path3976"
       inkscape:connector-curvature="0" />
    <path
       transform="matrix(4.3274074,0,0,3.2455556,117.19278,-35.348334)"
       d="m -24,13 a 1.5,2 0 1 1 -3,0 1.5,2 0 1 1 3,0 z"
       sodipodi:ry="2"
       sodipodi:rx="1.5"
       sodipodi:cy="13"
       sodipodi:cx="-25.5"
       id="path3952"
       style="opacity:0.2;fill:#000000;fill-opacity:1;stroke:none"
       sodipodi:type="arc" />
  </g>
  <g
     inkscape:groupmode="layer"
     id="layer2"
     inkscape:label="Base">
    <path
       sodipodi:type="arc"
       style="fill:url(#linearGradient4033);fill-opacity:1.0;stroke:none"
       id="path3942"
       sodipodi:cx="-25.5"
       sodipodi:cy="13"
       sodipodi:rx="1.5"
       sodipodi:ry="2"
       d="m -24,13 a 1.5,2 0 1 1 -3,0 1.5,2 0 1 1 3,0 z"
       transform="matrix(0,-4.3274075,3.2455556,0,-35.418894,-103.57556)" />
    <path
       style="opacity:0.1;fill:#000000;fill-opacity:1;stroke:none"
       d="M 40.03125 7.53125 C 43.74361 11.615755 46 17.04568 46 23 C 46 35.702549 35.702549 46 23 46 C 17.04568 46 11.615755 43.74361 7.53125 40.03125 C 11.709416 44.322508 17.537578 47 24 47 C 36.702549 47 47 36.702549 47 24 C 47 17.537578 44.322508 11.709416 40.03125 7.53125 z "
       id="path4027"
       transform="scale(0.28222223,0.28222223)" />
  </g>
  <g
     inkscape:groupmode="layer"
     id="layer3"
     inkscape:label="Symbol">
    <g
       id="g4084"
       style="opacity:0.1;fill:#000000;fill-opacity:1"
       transform="translate(0.28233147,0.28222217)">
      <path
         style="fill:#000000;fill-opacity:1;stroke:none"
         d="m 24,12 c -2.92961,0 -5.603964,1.141961 -7.6875,3.03125 C 15.200959,16 17,16 17.59375,16 19.447569,14.731906 21.645169,14 24,14 c 2.354831,0 4.552431,0.731906 6.40625,2 C 31,16 33,16 31.6875,15.03125 29.603964,13.141961 26.92961,12 24,12 z"
         transform="scale(0.28222223,0.28222223)"
         id="path4072"
         inkscape:connector-curvature="0"
         sodipodi:nodetypes="sccsccs" />
      <path
         style="fill:#000000;fill-opacity:1;stroke:none"
         d="m 24,10 c -7.179702,0 -13,6.268013 -13,14 0,2.551456 0.642731,4.939995 1.75,7 l 2.3125,0 C 13.763203,29.029729 13,26.612449 13,24 c 0,-6.627417 4.924868,-12 11,-12 6.075132,0 11,5.372583 11,12 0,2.612449 -0.763203,5.029729 -2.0625,7 L 35.25,31 C 36.357269,28.939995 37,26.551456 37,24 37,16.268013 31.179702,10 24,10 z"
         transform="scale(0.28222223,0.28222223)"
         id="path4074"
         inkscape:connector-curvature="0" />
      <rect
         style="fill:#000000;fill-opacity:1;stroke:none"
         id="rect4076"
         width="0.56444448"
         height="1.6933334"
         x="-0.085865714"
         y="8.8198099"
         rx="0.25"
         ry="0.25"
         transform="matrix(0.93969262,-0.34202015,0.34202015,0.93969262,0,0)" />
      <rect
         style="fill:#000000;fill-opacity:1;stroke:none"
         id="rect4078"
         width="1.128889"
         height="2.2577779"
         x="0.28330353"
         y="8.5142803"
         rx="0.5"
         ry="0.5"
         transform="matrix(0.93969262,-0.34202015,0.34202015,0.93969262,0,0)" />
      <rect
         transform="matrix(-0.93969262,-0.34202015,-0.34202015,0.93969262,0,0)"
         ry="0.25"
         rx="0.25"
         y="4.1764646"
         x="-12.837261"
         height="1.6933334"
         width="0.56444448"
         id="rect4080"
         style="fill:#000000;fill-opacity:1;stroke:none" />
      <rect
         transform="matrix(-0.93969262,-0.34202015,-0.34202015,0.93969262,0,0)"
         ry="0.5"
         rx="0.5"
         y="3.8829119"
         x="-12.447348"
         height="2.2577779"
         width="1.128889"
         id="rect4082"
         style="fill:#000000;fill-opacity:1;stroke:none" />
    </g>
    <path
       style="fill:#636890;fill-opacity:1;stroke:none"
       d="m 24,12 c -2.92961,0 -5.603964,1.141961 -7.6875,3.03125 C 15.200959,16 17,16 17.59375,16 19.447569,14.731906 21.645169,14 24,14 c 2.354831,0 4.552431,0.731906 6.40625,2 C 31,16 33,16 31.6875,15.03125 29.603964,13.141961 26.92961,12 24,12 z"
       transform="scale(0.28222223,0.28222223)"
       id="path4059"
       inkscape:connector-curvature="0"
       sodipodi:nodetypes="sccsccs" />
    <path
       style="fill:#f8f0e2;fill-opacity:1;stroke:none"
       d="M 24 10 C 16.820298 10 11 16.268013 11 24 C 11 26.551456 11.642731 28.939995 12.75 31 L 15.0625 31 C 13.763203 29.029729 13 26.612449 13 24 C 13 17.372583 17.924868 12 24 12 C 30.075132 12 35 17.372583 35 24 C 35 26.612449 34.236797 29.029729 32.9375 31 L 35.25 31 C 36.357269 28.939995 37 26.551456 37 24 C 37 16.268013 31.179702 10 24 10 z "
       transform="scale(0.28222223,0.28222223)"
       id="path4297" />
    <rect
       style="fill:#636890;fill-opacity:1;stroke:none"
       id="rect4037"
       width="0.56444448"
       height="1.6933334"
       x="-0.085865714"
       y="8.8198099"
       rx="0.25"
       ry="0.25"
       transform="matrix(0.93969262,-0.34202015,0.34202015,0.93969262,0,0)" />
    <rect
       style="fill:#ce1c22;fill-opacity:1;stroke:none"
       id="rect3265"
       width="1.128889"
       height="2.2577779"
       x="0.28330353"
       y="8.5142803"
       rx="0.5"
       ry="0.5"
       transform="matrix(0.93969262,-0.34202015,0.34202015,0.93969262,0,0)" />
    <rect
       transform="matrix(-0.93969262,-0.34202015,-0.34202015,0.93969262,0,0)"
       ry="0.25"
       rx="0.25"
       y="4.1764646"
       x="-12.837261"
       height="1.6933334"
       width="0.56444448"
       id="rect4057"
       style="fill:#636890;fill-opacity:1;stroke:none" />
    <rect
       transform="matrix(-0.93969262,-0.34202015,-0.34202015,0.93969262,0,0)"
       ry="0.5"
       rx="0.5"
       y="3.8829119"
       x="-12.447348"
       height="2.2577779"
       width="1.128889"
       id="rect4035"
       style="fill:#ce1c22;fill-opacity:1;stroke:none" />
  </g>
</svg>

<svg xmlns="http://www.w3.org/2000/svg" width="48" viewBox="0 0 13.546667 13.546667" height="48">
 <defs>
  <linearGradient id="linearGradient4033" x1="-27" x2="-24" gradientUnits="userSpaceOnUse">
   <stop style="stop-color:#faaa60;stop-opacity:1"/>
   <stop offset="1" style="stop-color:#ffb36c;stop-opacity:1"/>
  </linearGradient>
 </defs>
 <g>
  <path d="m 25 2 c -12.703 0 -23 10.297 -23 23 0 6.367 2.601 12.12 6.781 16.281 4.085 3.712 9.514 5.969 15.469 5.969 c 12.703 0 23 -10.297 23 -23 0 -5.954 -2.256 -11.384 -5.969 -15.469 c -4.165 -4.181 -9.914 -6.781 -16.281 -6.781 z m 16.281 6.781 c 3.854 4.113 6.219 9.637 6.219 15.719 c 0 12.703 -10.297 23 -23 23 c -6.081 0 -11.606 -2.364 -15.719 -6.219 4.16 4.144 9.883 6.719 16.219 6.719 12.703 0 23 -10.297 23 -23 0 -6.335 -2.575 -12.06 -6.719 -16.219 z" transform="scale(0.28222223,0.28222223)" style="fill:#000;opacity:0.05;fill-opacity:1;stroke:none"/>
  <path d="m 41.28 8.781 c 3.712 4.085 5.969 9.514 5.969 15.469 c 0 12.703 -10.297 23 -23 23 -5.954 0 -11.384 -2.256 -15.469 -5.969 c 4.113 3.854 9.637 6.219 15.719 6.219 c 12.703 0 23 -10.297 23 -23 0 -6.081 -2.364 -11.606 -6.219 -15.719 z" transform="scale(0.28222223,0.28222223)" style="fill:#000;opacity:0.1;fill-opacity:1;stroke:none"/>
  <path transform="matrix(4.3274074,0,0,3.2455556,117.19278,-35.348334)" d="m -24 13 a 1.5 2 0 1 1 -3 0 1.5 2 0 1 1 3 0 z" style="fill:#000;opacity:0.2;fill-opacity:1;stroke:none"/>
 </g>
 <g>
  <path d="m -24 13 a 1.5 2 0 1 1 -3 0 1.5 2 0 1 1 3 0 z" transform="matrix(0,-4.3274075,3.2455556,0,-35.418894,-103.57556)" style="fill:url(#linearGradient4033);fill-opacity:1;stroke:none"/>
  <path d="m 40.03 7.531 c 3.712 4.085 5.969 9.514 5.969 15.469 c 0 12.703 -10.297 23 -23 23 c -5.954 0 -11.384 -2.256 -15.469 -5.969 c 4.178 4.291 10.01 6.969 16.469 6.969 c 12.703 0 23 -10.297 23 -23 c 0 -6.462 -2.677 -12.291 -6.969 -16.469 z" transform="scale(0.28222223,0.28222223)" style="fill:#000;opacity:0.1;fill-opacity:1;stroke:none"/>
 </g>
 <g>
  <g transform="translate(0.28233147,0.28222217)" style="fill:#000;opacity:0.1;fill-opacity:1">
   <path d="m 25 11 c -7.18 0 -13 6.268 -13 14 c 0 1.68 0.284 3.288 0.791 4.779 c -0.014 0.087 -0.024 0.175 -0.025 0.264 c -0.104 0 -0.212 0.009 -0.316 0.047 l -0.213 0.078 c -0.461 0.168 -0.699 0.674 -0.531 1.135 l 1.447 3.975 c 0.168 0.461 0.674 0.697 1.135 0.529 l 0.215 -0.078 c 0.127 -0.046 0.231 -0.122 0.32 -0.211 c 0.471 0.461 1.177 0.642 1.84 0.4 l 0.43 -0.156 c 0.922 -0.336 1.394 -1.349 1.059 -2.271 l -1.523 -4.188 c -0.329 -0.904 -1.308 -1.369 -2.215 -1.072 c -0.263 -1.029 -0.412 -2.11 -0.412 -3.23 c 0 -3.212 1.165 -6.122 3.049 -8.275 c 0.269 0.27 1.157 0.275 1.545 0.275 c 1.854 -1.268 4.051 -2 6.406 -2 c 2.355 0 4.552 0.732 6.406 2 c 0.365 0 1.256 -0.002 1.588 -0.227 c 1.859 2.149 3.01 5.04 3.01 8.227 c 0 1.123 -0.148 2.206 -0.412 3.236 c -0.906 -0.296 -1.884 0.171 -2.213 1.074 l -1.523 4.188 c -0.336 0.922 0.136 1.936 1.059 2.271 l 0.428 0.156 c 0.689 0.251 1.428 0.051 1.898 -0.451 c 0.094 0.104 0.206 0.195 0.348 0.246 l 0.213 0.078 c 0.461 0.168 0.969 -0.068 1.137 -0.529 l 1.445 -3.975 c 0.168 -0.461 -0.068 -0.967 -0.529 -1.135 l -0.215 -0.078 c -0.133 -0.048 -0.267 -0.055 -0.398 -0.041 c 0 -0.088 -0.011 -0.176 -0.025 -0.262 c 0.507 -1.492 0.789 -3.099 0.789 -4.779 c 0 -7.732 -5.82 -14 -13 -14 z" transform="matrix(0.28222223,0,0,0.28222223,-0.28233147,-0.28222217)" style="stroke:none"/>
  </g>
  <g transform="translate(1.0926177e-4,0)">
   <path transform="scale(0.28222223,0.28222223)" d="m 24 12 c -2.93 0 -5.604 1.142 -7.688 3.03 c -1.112 0.969 0.688 0.969 1.281 0.969 1.854 -1.268 4.051 -2 6.406 -2 c 2.355 0 4.552 0.732 6.406 2 c 0.594 0 2.594 0 1.281 -0.969 -2.084 -1.889 -4.758 -3.03 -7.688 -3.03" style="fill:#636890;fill-opacity:1;stroke:none"/>
   <path transform="scale(0.28222223,0.28222223)" d="m 24 10 c -7.18 0 -13 6.268 -13 14 0 2.551 0.643 4.94 1.75 7 l 2.313 0 c -1.299 -1.97 -2.063 -4.388 -2.063 -7 c 0 -6.627 4.925 -12 11 -12 6.075 0 11 5.373 11 12 0 2.612 -0.763 5.03 -2.063 7 l 2.313 0 c 1.107 -2.06 1.75 -4.449 1.75 -7 0 -7.732 -5.82 -14 -13 -14" style="fill:#f8f0e2;fill-opacity:1;stroke:none"/>
   <rect transform="matrix(0.93969262,-0.34202015,0.34202015,0.93969262,0,0)" rx="0.25" y="8.82" x="-0.086" height="1.693" width="0.564" style="fill:#636890;fill-opacity:1;stroke:none"/>
   <rect transform="matrix(0.93969262,-0.34202015,0.34202015,0.93969262,0,0)" rx="0.5" y="8.514" x="0.283" height="2.258" width="1.129" style="fill:#ce1c22;fill-opacity:1;stroke:none"/>
   <rect width="0.564" height="1.693" x="-12.837" y="4.176" rx="0.25" transform="matrix(-0.93969262,-0.34202015,-0.34202015,0.93969262,0,0)" style="fill:#636890;fill-opacity:1;stroke:none"/>
   <rect width="1.129" height="2.258" x="-12.447" y="3.883" rx="0.5" transform="matrix(-0.93969262,-0.34202015,-0.34202015,0.93969262,0,0)" style="fill:#ce1c22;fill-opacity:1;stroke:none"/>
  </g>
 </g>
</svg>
